flaticon/technology/ipod.svg

<svg xmlns="http://www.w3.org/2000/svg" width="32" height="32" viewBox="0 0 24 24">
    <path d="M7.601562 5.601562C7.703125 5.601562 7.804688 5.5625 7.882812 5.484375L9.484375 3.882812C9.640625 3.726562 9.640625 3.472656 9.484375 3.316406 9.328125 3.160156 9.074219 3.160156 8.917969 3.316406L7.316406 4.917969C7.160156 5.074219 7.160156 5.328125 7.316406 5.484375 7.394531 5.5625 7.5 5.601562 7.601562 5.601562zM8.117188 6.117188L7.316406 6.917969C7.160156 7.074219 7.160156 7.328125 7.316406 7.484375 7.394531 7.5625 7.5 7.601562 7.601562 7.601562 7.703125 7.601562 7.804688 7.5625 7.882812 7.484375L8.683594 6.683594C8.839844 6.527344 8.839844 6.273438 8.683594 6.117188 8.527344 5.960938 8.273438 5.960938 8.117188 6.117188zM8.917969 5.316406C8.84375 5.390625 8.800781 5.496094 8.800781 5.597656 8.800781 5.707031 8.84375 5.8125 8.917969 5.882812 8.992188 5.960938 9.097656 6 9.199219 6 9.304688 6 9.410156 5.960938 9.484375 5.882812 9.554688 5.8125 9.601562 5.707031 9.601562 5.597656 9.601562 5.496094 9.554688 5.390625 9.484375 5.320312 9.335938 5.167969 9.0625 5.171875 8.917969 5.316406zM10.917969 3.316406L9.71875 4.519531C9.5625 4.675781 9.5625 4.925781 9.71875 5.082031 9.796875 5.160156 9.898438 5.199219 10 5.199219 10.101562 5.199219 10.203125 5.160156 10.28125 5.082031L11.484375 3.882812C11.640625 3.726562 11.640625 3.472656 11.484375 3.316406 11.328125 3.160156 11.074219 3.160156 10.917969 3.316406zM10.917969 3.316406"/>
    <path d="M 18.398438 0 L 5.601562 0 C 4.71875 0 4 0.71875 4 1.601562 L 4 22.398438 C 4 23.28125 4.71875 24 5.601562 24 L 18.398438 24 C 19.28125 24 20 23.28125 20 22.398438 L 20 1.601562 C 20 0.71875 19.28125 0 18.398438 0 Z M 19.199219 22.398438 C 19.199219 22.839844 18.839844 23.199219 18.398438 23.199219 L 5.601562 23.199219 C 5.160156 23.199219 4.800781 22.839844 4.800781 22.398438 L 4.800781 1.601562 C 4.800781 1.160156 5.160156 0.800781 5.601562 0.800781 L 18.398438 0.800781 C 18.839844 0.800781 19.199219 1.160156 19.199219 1.601562 C 19.199219 1.601562 19.199219 22.398438 19.199219 22.398438 Z M 19.199219 22.398438"/>
    <path d="M6 10.402344L18 10.402344 18 2.003906 6 2.003906C6 2.003906 6 10.402344 6 10.402344zM6.800781 2.800781L17.199219 2.800781 17.199219 9.601562 6.800781 9.601562C6.800781 9.601562 6.800781 2.800781 6.800781 2.800781zM12 11.203125C8.914062 11.203125 6.402344 13.714844 6.402344 16.800781 6.402344 19.886719 8.914062 22.398438 12 22.398438 15.085938 22.398438 17.597656 19.886719 17.597656 16.800781 17.597656 13.714844 15.085938 11.203125 12 11.203125zM12 21.601562C9.351562 21.601562 7.199219 19.445312 7.199219 16.800781 7.199219 14.152344 9.351562 12 12 12 14.648438 12 16.800781 14.152344 16.800781 16.800781 16.800781 19.445312 14.648438 21.601562 12 21.601562zM12 21.601562"/>
    <path d="M12 14.800781C10.898438 14.800781 10 15.699219 10 16.800781 10 17.902344 10.898438 18.800781 12 18.800781 13.101562 18.800781 14 17.902344 14 16.800781 14 15.699219 13.101562 14.800781 12 14.800781zM12 18C11.339844 18 10.800781 17.460938 10.800781 16.800781 10.800781 16.140625 11.339844 15.601562 12 15.601562 12.660156 15.601562 13.199219 16.140625 13.199219 16.800781 13.199219 17.460938 12.660156 18 12 18zM11.601562 14L12.398438 14C12.621094 14 12.800781 13.820312 12.800781 13.601562 12.800781 13.378906 12.621094 13.199219 12.398438 13.199219L11.601562 13.199219C11.378906 13.199219 11.199219 13.378906 11.199219 13.601562 11.199219 13.820312 11.378906 14 11.601562 14zM12.398438 19.601562L11.601562 19.601562C11.378906 19.601562 11.199219 19.78125 11.199219 20 11.199219 20.222656 11.378906 20.398438 11.601562 20.398438L12.398438 20.398438C12.621094 20.398438 12.800781 20.222656 12.800781 20 12.800781 19.78125 12.621094 19.601562 12.398438 19.601562zM14.800781 16.800781C14.800781 17.023438 14.976562 17.199219 15.199219 17.199219L15.601562 17.199219C15.820312 17.199219 16 17.023438 16 16.800781 16 16.578125 15.820312 16.402344 15.601562 16.402344L15.199219 16.402344C14.976562 16.402344 14.800781 16.578125 14.800781 16.800781zM8.800781 16.402344L8.398438 16.402344C8.179688 16.402344 8 16.578125 8 16.800781 8 17.023438 8.179688 17.199219 8.398438 17.199219L8.800781 17.199219C9.023438 17.199219 9.199219 17.023438 9.199219 16.800781 9.199219 16.578125 9.023438 16.402344 8.800781 16.402344zM8.800781 16.402344"/>
</svg>

<svg xmlns="http://www.w3.org/2000/svg" width="32" height="32" viewBox="0 0 24 24">
    <path d="M7.602 5.602c.101 0 .203-.04.28-.118l1.602-1.601a.4.4 0 0 0-.566-.567L7.316 4.918a.4.4 0 0 0 .286.684zm0 0M8.117 6.117l-.8.801a.4.4 0 0 0 .566.566l.8-.8a.4.4 0 0 0-.566-.567zm0 0M8.918 5.316a.406.406 0 0 0-.117.282c0 .109.043.215.117.285A.39.39 0 0 0 9.199 6c.106 0 .211-.04.285-.117a.411.411 0 0 0 .118-.285.407.407 0 0 0-.118-.278.416.416 0 0 0-.566-.004zm0 0M10.918 3.316l-1.2 1.204a.396.396 0 0 0 0 .562.396.396 0 0 0 .563 0l1.203-1.2a.4.4 0 0 0-.566-.566zm0 0"/>
    <path d="M18.398 0H5.602C4.719 0 4 .719 4 1.602v20.796C4 23.281 4.719 24 5.602 24h12.796c.883 0 1.602-.719 1.602-1.602V1.602C20 .719 19.281 0 18.398 0zm.801 22.398c0 .442-.36.801-.8.801H5.601c-.442 0-.801-.36-.801-.8V1.601c0-.442.36-.801.8-.801h12.797c.442 0 .801.36.801.8v20.797zm0 0"/>
    <path d="M6 10.402h12V2.004H6v8.398zm.8-7.601h10.4v6.8H6.8v-6.8zm0 0M12 11.203a5.605 5.605 0 0 0-5.598 5.598A5.605 5.605 0 0 0 12 22.398a5.605 5.605 0 0 0 5.598-5.597A5.605 5.605 0 0 0 12 11.203zm0 10.399A4.807 4.807 0 0 1 7.2 16.8C7.2 14.152 9.351 12 12 12c2.648 0 4.8 2.152 4.8 4.8 0 2.645-2.152 4.802-4.8 4.802zm0 0"/>
    <path d="M12 14.8c-1.102 0-2 .9-2 2 0 1.102.898 2 2 2 1.102 0 2-.898 2-2 0-1.1-.898-2-2-2zm0 3.2c-.66 0-1.2-.54-1.2-1.2 0-.66.54-1.198 1.2-1.198.66 0 1.2.539 1.2 1.199S12.66 18 12 18zm0 0M11.602 14h.796a.401.401 0 1 0 0-.8h-.796a.401.401 0 0 0 0 .8zm0 0M12.398 19.602h-.796a.398.398 0 0 0 0 .797h.796a.398.398 0 1 0 0-.797zm0 0M14.8 16.8c0 .223.177.4.4.4h.402a.398.398 0 1 0 0-.798h-.403a.395.395 0 0 0-.398.399zm0 0M8.8 16.402h-.402a.398.398 0 1 0 0 .797h.403a.395.395 0 0 0 .398-.398.395.395 0 0 0-.398-.399zm0 0"/>
</svg>
